X:21
T: AUF AUF IHR LIEBEN LEUTE
N: B0507
O: Europa, Mitteleuropa, Deutschland
R: Wander - Lied
M: 6/8
L: 1/8
K: A
E | A2Ac2A | e3E2
E | A2EC2A, | E3z2
e | e2ccBc | d3B2
d | c2ABAB | A3z2

@@@ Tune index: 2239
